X: 10872
T: VENETIAN AIR
Q: "Andante."
%R: air, jig
B: W. Hamilton "Universal Tune-Book" Vol. 1 Glasgow 1844 p.87 #2
S: http://imslp.org/wiki/Hamilton's_Universal_Tune-Book_(Various)
Z: 2016 John Chambers <jc:trillian.mit.edu>
M: 6/8
L: 1/8
K: A
%%stretchstaff 0
% - - - - - - - - - - - - - - - - - - - - - - - - -
(ed) |\
c2c c2d | (f2e) edc | (Bfe dcB) | c3- c(ed) |\
c2c c2d | (f2e) edc | Bfe dcB | A3 "^Fin."A H|]
ee |\
e2E E2e | (e3 ^d2)=d | d2E E2d | (d3 c2)e |\
e^de afd | e2g/f/ "^D.C."e |]
% - - - - - - - - - - - - - - - - - - - - - - - - -

%%sep 1 1 500
%%sep 1 1 500

